X:1
T:Blarney Pilgrim, The
R:jig
Z:id:hn-jig-235
M:6/8
L:1/8
K:Dmix
~D3 DEG|A2G ABc|BAG AGE|GEA GED|
~D3 DEG|A2G ABc|BAG AGE|GED D3:|
ded dBG|AGA BGE|ded dBG|ABA GBd|
g2e dBG|AGA BGE|B2G AGE|GAG GFG:|
ADD BDD|ADD ABc|BAG AGE|GEA GED|
ADD BDD|ADD ABc|BAG AGE|GED D3:|
</abc>
